backend/papyrus-web-graphics/src/main/resources/icons-override/full/obj16/OperationTemplateParameter.svg

<?xml version="1.0" encoding="UTF-8" standalone="no"?>
<svg
   width="18"
   height="16"
   viewBox="0 0 4.7624998 4.2333332"
   version="1.1"
   id="svg8"
   inkscape:version="1.3 (0e150ed, 2023-07-21)"
   sodipodi:docname="OperationTemplateParameter.svg"
   xml:space="preserve"
   xmlns:inkscape="http://www.inkscape.org/namespaces/inkscape"
   xmlns:sodipodi="http://sodipodi.sourceforge.net/DTD/sodipodi-0.dtd"
   xmlns:xlink="http://www.w3.org/1999/xlink"
   xmlns="http://www.w3.org/2000/svg"
   xmlns:svg="http://www.w3.org/2000/svg"><defs
     id="defs2"><linearGradient
       inkscape:collect="always"
       id="linearGradient872"><stop
         style="stop-color:#cae2f9;stop-opacity:1;"
         offset="0"
         id="stop868" /><stop
         style="stop-color:#fdfeff;stop-opacity:1"
         offset="1"
         id="stop870" /></linearGradient><linearGradient
       inkscape:collect="always"
       xlink:href="#linearGradient872"
       id="linearGradient1"
       gradientUnits="userSpaceOnUse"
       gradientTransform="matrix(0.01922932,0,0,0.01140497,1.1833947,0.44241908)"
       x1="79.250175"
       y1="-147.39244"
       x2="80.691353"
       y2="131.07875" /><linearGradient
       inkscape:collect="always"
       xlink:href="#linearGradient1086"
       id="linearGradient1088-2"
       x1="-0.80093998"
       y1="-3.7348001"
       x2="2.5992501"
       y2="4.0184498"
       gradientUnits="userSpaceOnUse" /><linearGradient
       inkscape:collect="always"
       id="linearGradient1086"><stop
         style="stop-color:#b9c8de;stop-opacity:1;"
         offset="0"
         id="stop1082" /><stop
         style="stop-color:#3d7ebd;stop-opacity:1"
         offset="1"
         id="stop1084" /></linearGradient><linearGradient
       inkscape:collect="always"
       xlink:href="#linearGradient1086"
       id="linearGradient6"
       gradientUnits="userSpaceOnUse"
       x1="-0.80093998"
       y1="-3.7348001"
       x2="2.5992501"
       y2="4.0184498" /><linearGradient
       inkscape:collect="always"
       xlink:href="#linearGradient1086"
       id="linearGradient7"
       gradientUnits="userSpaceOnUse"
       x1="-0.80093998"
       y1="-3.7348001"
       x2="2.5992501"
       y2="4.0184498" /></defs><sodipodi:namedview
     id="base"
     pagecolor="#ffffff"
     bordercolor="#666666"
     borderopacity="1.0"
     inkscape:pageopacity="0"
     inkscape:pageshadow="2"
     inkscape:zoom="16.468201"
     inkscape:cx="14.694987"
     inkscape:cy="12.38751"
     inkscape:document-units="mm"
     inkscape:current-layer="svg8"
     inkscape:document-rotation="0"
     showgrid="false"
     inkscape:pagecheckerboard="false"
     inkscape:window-width="2560"
     inkscape:window-height="1387"
     inkscape:window-x="0"
     inkscape:window-y="25"
     inkscape:window-maximized="0"
     units="px"
     inkscape:showpageshadow="2"
     inkscape:deskcolor="#d1d1d1" /><g
     id="g7"
     transform="translate(0,0.14459685)"><g
       id="g2"
       transform="translate(0.22931583,0.37471482)"><g
         id="g6"
         transform="translate(8.0620054,-2.4061473)"><g
           id="g21"><g
             id="g1096"
             transform="matrix(-0.01861983,0,0,0.01861983,-2.3256302,3.0839355)"><g
               inkscape:label="Rendered Gears"
               transform="matrix(9.564118,0,0,9.564118,229.47846,98.421382)"
               id="g1057"
               style="fill:url(#linearGradient1088-2);fill-opacity:1;stroke:#2d6296;stroke-width:0.83646;stroke-miterlimit:4;stroke-dasharray:none;stroke-opacity:1"><path
                 style="fill:url(#linearGradient6);fill-opacity:1;stroke:#2d6296;stroke-width:0.83646;stroke-miterlimit:4;stroke-dasharray:none;stroke-opacity:1"
                 d="m 3.7348,-0.80094 0.94462,-0.20258 0.31568,0.00993 1.36177,0.64918 V 0.34441 L 4.9951,0.99359 4.67942,1.00352 3.7348,0.80094 3.20725,2.07455 4.01845,2.59925 4.23464,2.8295 4.73852,4.25146 4.25146,4.73852 2.8295,4.23464 2.59925,4.01845 2.07455,3.20725 0.80094,3.7348 1.00352,4.67942 0.99359,4.9951 0.34441,6.35687 H -0.34441 L -0.99359,4.9951 -1.00352,4.67942 -0.80094,3.7348 -2.07455,3.20725 -2.59925,4.01845 -2.8295,4.23464 -4.25146,4.73852 -4.73852,4.25146 -4.23464,2.8295 -4.01845,2.59925 -3.20725,2.07455 -3.7348,0.80094 -4.67942,1.00352 -4.9951,0.99359 -6.35687,0.34441 v -0.68882 l 1.36177,-0.64918 0.31568,-0.00993 0.94462,0.20258 0.52755,-1.27361 -0.8112,-0.5247 -0.21619,-0.23025 -0.50388,-1.42196 0.48706,-0.48706 1.42196,0.50388 0.23025,0.21619 0.5247,0.8112 1.27361,-0.52755 -0.20258,-0.94462 0.00993,-0.31568 0.64918,-1.36177 h 0.68882 l 0.64918,1.36177 0.00993,0.31568 -0.20258,0.94462 1.27361,0.52755 0.5247,-0.8112 0.23025,-0.21619 1.42196,-0.50388 0.48706,0.48706 -0.50388,1.42196 -0.21619,0.23025 -0.8112,0.5247 z"
                 id="path1053" /><circle
                 style="fill:url(#linearGradient7);fill-opacity:1;stroke:#2d6296;stroke-width:0.83646;stroke-miterlimit:4;stroke-dasharray:none;stroke-opacity:1"
                 id="path1055"
                 cx="0"
                 cy="0"
                 r="2" /></g><circle
               style="opacity:1;fill:#ffffff;fill-opacity:1;stroke:none;stroke-width:15.0695;stroke-miterlimit:4;stroke-dasharray:none;stroke-opacity:1"
               id="path1090"
               cx="229.47845"
               cy="98.421379"
               r="4.6329565" /></g></g><g
           id="g882-2"
           transform="translate(4.7247568,1.3507)" /></g><path
         id="rect881-0"
         style="fill:url(#linearGradient1);fill-opacity:1;stroke:#2d6296;stroke-width:0.16514;stroke-linejoin:bevel;stroke-miterlimit:4;stroke-dasharray:0.33028, 0.16514;stroke-dashoffset:0;stroke-opacity:1"
         d="M 1.6345105,0.48667742 H 3.957918 V 2.0879986 H 1.6345105 Z" /></g><g
       id="g862-3"
       transform="matrix(-0.76451328,0,0,0.76395816,4.4777974,-1.6991667)"
       style="stroke-width:0.798142"><path
         style="fill:none;stroke:#2d6296;stroke-width:0.211175px;stroke-linecap:butt;stroke-linejoin:miter;stroke-opacity:1"
         d="m 2.2002773,4.6196249 c -0.8241981,-0.7582154 -0.7314462,-1.7989083 0,-2.5683926"
         id="path858-7"
         sodipodi:nodetypes="cc" /><path
         style="fill:#2d6296;stroke:#2d6296;stroke-width:0.220132;stroke-linecap:square;stroke-linejoin:round;stroke-dasharray:none"
         d="M 4.1039278,3.3549994 H 2.4838082"
         id="path3" /><path
         style="fill:#2d6296;stroke:#2d6296;stroke-width:0.260222;stroke-linecap:square;stroke-linejoin:round;stroke-dasharray:none"
         d="m 4.1616497,2.9719207 0.01106,0.7661573"
         id="path4" /><path
         style="fill:#2d6296;stroke:#2d6296;stroke-width:0.260222;stroke-linecap:square;stroke-linejoin:round;stroke-dasharray:none"
         d="m 2.369882,2.9719207 0.01106,0.7661574"
         id="path4-0" /><path
         style="fill:none;stroke:#2d6296;stroke-width:0.211175px;stroke-linecap:butt;stroke-linejoin:miter;stroke-opacity:1"
         d="m 2.2241122,4.6503913 c -0.8241981,-0.7582154 -0.7314462,-1.7989083 0,-2.5683926"
         id="path858"
         sodipodi:nodetypes="cc"
         inkscape:label="path858"
         transform="matrix(-0.99999999,0,0,0.99999999,6.6807723,-0.03076645)" /></g></g></svg>

<svg xmlns="http://www.w3.org/2000/svg" xmlns:xlink="http://www.w3.org/1999/xlink" xml:space="preserve" width="16" height="16">
    <defs>
        <linearGradient id="a">
            <stop offset="0" style="stop-color:#cae2f9;stop-opacity:1"/>
            <stop offset="1" style="stop-color:#fdfeff;stop-opacity:1"/>
        </linearGradient>
        <linearGradient xlink:href="#a" id="f" x1="79.25" x2="80.691" y1="-147.392" y2="131.079" gradientTransform="matrix(.01923 0 0 .0114 1.183 .442)" gradientUnits="userSpaceOnUse"/>
        <linearGradient xlink:href="#b" id="c" x1="-.801" x2="2.599" y1="-3.735" y2="4.018" gradientUnits="userSpaceOnUse"/>
        <linearGradient id="b">
            <stop offset="0" style="stop-color:#b9c8de;stop-opacity:1"/>
            <stop offset="1" style="stop-color:#3d7ebd;stop-opacity:1"/>
        </linearGradient>
        <linearGradient xlink:href="#b" id="d" x1="-.801" x2="2.599" y1="-3.735" y2="4.018" gradientUnits="userSpaceOnUse"/>
        <linearGradient xlink:href="#b" id="e" x1="-.801" x2="2.599" y1="-3.735" y2="4.018" gradientUnits="userSpaceOnUse"/>
    </defs>
    <g transform="matrix(-.06683 0 0 .06683 20.854 4.604)">
        <g style="fill:url(#c);fill-opacity:1;stroke:#2d6296;stroke-width:.83646;stroke-miterlimit:4;stroke-dasharray:none;stroke-opacity:1" transform="translate(229.478 98.421)scale(9.56412)">
            <path d="m3.735-.8.944-.204.316.01 1.362.65v.688l-1.362.65-.316.01L3.735.8l-.528 1.274.811.524.217.23.504 1.422-.488.488-1.422-.504-.23-.217-.524-.81L.8 3.734l.203.944-.01.316-.65 1.362h-.688l-.65-1.362-.01-.316.203-.944-1.274-.528-.524.811-.23.217-1.422.504-.488-.488.504-1.422.217-.23.81-.524L-3.734.8l-.944.203-.316-.01-1.362-.65v-.688l1.362-.65.316-.01.944.203.528-1.274-.811-.524-.217-.23-.504-1.422.488-.488 1.422.504.23.217.524.81L-.8-3.734l-.203-.944.01-.316.65-1.362h.688l.65 1.362.01.316-.203.944 1.274.528.524-.811.23-.217 1.422-.504.488.488-.504 1.421-.217.23-.81.525z" style="fill:url(#d);fill-opacity:1;stroke:#2d6296;stroke-width:.83646;stroke-miterlimit:4;stroke-dasharray:none;stroke-opacity:1"/>
            <circle r="2" style="fill:url(#e);fill-opacity:1;stroke:#2d6296;stroke-width:.83646;stroke-miterlimit:4;stroke-dasharray:none;stroke-opacity:1"/>
        </g>
        <circle cx="229.478" cy="98.421" r="4.633" style="opacity:1;fill:#fff;fill-opacity:1;stroke:none;stroke-width:15.0695;stroke-miterlimit:4;stroke-dasharray:none;stroke-opacity:1"/>
    </g>
    <path d="M1.635.487h2.323v1.601H1.635Z" style="fill:url(#f);fill-opacity:1;stroke:#2d6296;stroke-width:.16514;stroke-linejoin:bevel;stroke-miterlimit:4;stroke-dasharray:.33028,.16514;stroke-dashoffset:0;stroke-opacity:1" transform="translate(.266 2.172)scale(3.58896)"/>
    <g style="stroke-width:.798142">
        <path d="M2.2 4.62c-.824-.759-.731-1.8 0-2.569" style="fill:none;stroke:#2d6296;stroke-width:.211175px;stroke-linecap:butt;stroke-linejoin:miter;stroke-opacity:1" transform="matrix(-2.7438 0 0 2.74181 15.514 -5.272)"/>
        <path d="M4.104 3.355h-1.62" style="fill:#2d6296;stroke:#2d6296;stroke-width:.220132;stroke-linecap:square;stroke-linejoin:round;stroke-dasharray:none" transform="matrix(-2.7438 0 0 2.74181 15.514 -5.272)"/>
        <path d="m4.162 2.972.01.766M2.37 2.972l.01.766" style="fill:#2d6296;stroke:#2d6296;stroke-width:.260222;stroke-linecap:square;stroke-linejoin:round;stroke-dasharray:none" transform="matrix(-2.7438 0 0 2.74181 15.514 -5.272)"/>
        <path d="M2.224 4.65c-.824-.758-.731-1.799 0-2.568" style="fill:none;stroke:#2d6296;stroke-width:.211175px;stroke-linecap:butt;stroke-linejoin:miter;stroke-opacity:1" transform="matrix(2.7438 0 0 2.74181 -2.817 -5.356)"/>
    </g>
</svg>
